X:319
T: ES LEBEN DIE STUDENTEN
N: F0550
O: Europa, Mitteleuropa, Deutschland
R: Studenten - Lied, Geselligkeit
M: 6/8
L: 1/8
K: F
A | A2AA2A | A3Az
A | ^G2Ad2c | c3B2
A | G2GG2G | G3Gz
G | G2AB2c | d3c2
F | d3dzd | c3cz
c | B2AB2c | A3Az
F | d3dzd | c3cz
c | e2dB2G | FzAAz
A | AzAcBA | GzGGz
G | GzGBAG | A2z3
F | d3dzd | c3cz
c | B2AB2c | A4z
F | d3dzd | c3cz
c | edcBAG | F2z3

